web/jetbrains/apple-mask-icon.svg

<svg enable-background="new 0 0 140 140" height="140" viewBox="0 0 140 140" width="140" xmlns="http://www.w3.org/2000/svg"><path d="m0 0v140h140v-140zm11.375 72.625 8.75-9.625c3.5 4.375 7 6.125 11.375 6.125 5.25 0 8.75-3.5 8.75-10.5v-41.125h14v41.125c0 7.875-1.75 13.125-6.125 16.625-3.5 4.375-9.625 7-16.625 7-9.625 0-15.75-4.375-20.125-9.625zm67.375 49.875h-61.25v-8.75h61.25zm20.125-42h-30.625v-63h29.75c7 0 13.125 1.75 16.625 5.25 2.625 2.625 4.375 6.125 4.375 10.5 0 7-3.5 11.375-8.75 14 7.875 3.5 12.25 7.875 12.25 15.75 0 11.375-9.625 17.5-23.625 17.5z"/><path d="m105 35.875c0-4.375-3.5-6.125-8.75-6.125h-14v13.125h13.125c6.125 0 9.625-1.75 9.625-7z"/><path d="m98 55.125h-15.75v14h16.625c6.125 0 9.625-1.75 9.625-7 0-4.375-2.625-7-10.5-7z"/></svg>

<?xml version="1.0" encoding="utf-8"?>
<!DOCTYPE svg PUBLIC "-//W3C//DTD SVG 1.1//EN" "http://www.w3.org/Graphics/SVG/1.1/DTD/svg11.dtd">
<svg version="1.1" id="Layer_1" xmlns="http://www.w3.org/2000/svg" x="0px" y="0px"
	 width="140px" height="140px" viewBox="0 0 140 140" enable-background="new 0 0 140 140" xml:space="preserve">
<g>
	<path d="M0,0v140h140V0H0z M11.375,72.625L20.125,63c3.5,4.375,7,6.125,11.375,6.125c5.25,0,8.75-3.5,8.75-10.5V17.5h14v41.125
		c0,7.875-1.75,13.125-6.125,16.625c-3.5,4.375-9.625,7-16.625,7C21.875,82.25,15.75,77.875,11.375,72.625z M78.75,122.5H17.5v-8.75
		h61.25V122.5z M98.875,80.5H68.25v-63H98c7,0,13.125,1.75,16.625,5.25c2.625,2.625,4.375,6.125,4.375,10.5c0,7-3.5,11.375-8.75,14
		c7.875,3.5,12.25,7.875,12.25,15.75C122.5,74.375,112.875,80.5,98.875,80.5z"/>
	<path d="M105,35.875c0-4.375-3.5-6.125-8.75-6.125h-14v13.125h13.125C101.5,42.875,105,41.125,105,35.875z"/>
	<path d="M98,55.125H82.25v14h16.625c6.125,0,9.625-1.75,9.625-7C108.5,57.75,105.875,55.125,98,55.125z"/>
</g>
</svg>
